public/static/images/oc-symbol.svg

<?xml version="1.0" encoding="UTF-8"?>
<svg width="288px" height="288px" viewBox="0 0 288 288" version="1.1" xmlns="http://www.w3.org/2000/svg" xmlns:xlink="http://www.w3.org/1999/xlink">
    <!-- Generator: sketchtool 50.2 (55047) - http://www.bohemiancoding.com/sketch -->
    <title>51D3DEA8-C839-4EC1-832A-7EFA54D4C72F</title>
    <desc>Created with sketchtool.</desc>
    <defs>
        <path d="M188,21.3513568 L156.970455,52.4353616 C145.945446,46.3308604 133.267763,42.8562859 119.78051,42.8562859 C77.2541056,42.8562859 42.7778981,77.3956688 42.7778981,120 C42.7778981,162.604331 77.2541056,197.143714 119.78051,197.143714 C133.267763,197.143714 145.945446,193.66914 156.970455,187.564638 L188,218.648643 C168.639768,232.11022 145.131085,240 119.78051,240 C53.6280593,240 0,186.273671 0,120 C0,53.7263293 53.6280593,0 119.78051,0 C145.131085,0 168.639768,7.88977984 188,21.3513568 Z M218.82592,51 C232.175728,70.2979426 240,93.730988 240,119 C240,144.269012 232.175728,167.704445 218.82592,187 L188,156.072677 C194.053817,145.08314 197.499542,132.443859 197.499542,119 C197.499542,105.556141 194.053817,92.9192472 188,81.92971 L218.82592,51 Z" id="path-1"></path>
        <filter x="-15.0%" y="-15.0%" width="130.0%" height="130.0%" filterUnits="objectBoundingBox" id="filter-2">
            <feOffset dx="0" dy="0" in="SourceAlpha" result="shadowOffsetOuter1"></feOffset>
            <feGaussianBlur stdDeviation="12" in="shadowOffsetOuter1" result="shadowBlurOuter1"></feGaussianBlur>
            <feComposite in="shadowBlurOuter1" in2="SourceAlpha" operator="out" result="shadowBlurOuter1"></feComposite>
            <feColorMatrix values="0 0 0 0 0.639215686   0 0 0 0 0.705882353   0 0 0 0 0.8  0 0 0 0.12 0" type="matrix" in="shadowBlurOuter1"></feColorMatrix>
        </filter>
    </defs>
    <g id="Homepage" stroke="none" stroke-width="1" fill="none" fill-rule="evenodd" opacity="0.766415308">
        <g id="Homepage---XL,-L,-M-(hd-desktop,-desktop,-hd-laptop,-laptop)" transform="translate(-1567.000000, -5467.000000)">
            <g id="JOIN-MOVEMENT" transform="translate(0.000000, 1964.000000)">
                <g id="::-stats" transform="translate(0.000000, 3447.000000)">
                    <g id="::-stat-(chapters)" transform="translate(1591.000000, 80.000000)">
                        <g id="symbol">
                            <use fill="black" fill-opacity="1" filter="url(#filter-2)" xlink:href="#path-1"></use>
                            <use fill="#FFFFFF" fill-rule="evenodd" xlink:href="#path-1"></use>
                        </g>
                    </g>
                </g>
            </g>
        </g>
    </g>
</svg>

<svg width="288" height="288" xmlns="http://www.w3.org/2000/svg" xmlns:xlink="http://www.w3.org/1999/xlink" aria-labelledby="symbol" role="presentation">
    <title id="symbol">Open Collective Symbol</title>
    <path fill="#fff" opacity="0.7" d="M188 21.351l-31.03 31.084c-11.025-6.104-23.702-9.579-37.19-9.579-42.526 0-77.002 34.54-77.002 77.144 0 42.604 34.476 77.144 77.003 77.144 13.487 0 26.164-3.475 37.19-9.58L188 218.65C168.64 232.11 145.131 240 119.78 240 53.629 240 0 186.274 0 120S53.628 0 119.78 0c25.351 0 48.86 7.89 68.22 21.351zM218.826 51C232.176 70.298 240 93.731 240 119s-7.824 48.704-21.174 68L188 156.073c6.054-10.99 9.5-23.63 9.5-37.073 0-13.444-3.446-26.08-9.5-37.07L218.826 51z" id="b"/>
</svg>
